X:1
T:Title
%%score [ 1 2 3 4 ]
L:1/8
Q:1/4=96
M:2/4
K:A
V:1 treble nm="Soprano"
V:2 treble nm="Alto"
V:3 treble-8 nm="Tenor"
V:4 bass nm="Bass"
V:1
"^Moderato" z4[Q:1/4=108] | z4 | z4 | z4 | c/d/e/d/ cB | B2 B2 | z2 e2 | (A>G A)B | (A>B c)d | c4 | %10
w: ||||Hal- * * * * le-|lu- jah.|The|Lord _ _ is|ris'n _ _ in-|deed,|
 (dc B)A | G4 | A4 | z4 | z4 | z4 | z4 | z4 | z4 | z4 | z4 | z4 | (e>d c)B | B4 | z4 | z4 | z2 A2 | %27
w: Hal- * * le-|lu-|jah.||||||||||Now _ _ is|Christ|||the|
 A2 BA | G3 G | A4 | c2 d2 | c2 B2 | z4 | z4 | A2 (BA) | G4 | A4 | z4 | z4 | z4 | e2 cd | e4 | %42
w: first fruits of|them that|slept.|Hal- le-|lu- jah,|||Hal- le- *|lu-|jah.||||And did He|rise?|
 c2 Ad | c4- | c4 | z2 cc | d4 | c2 A>c | B2 c2 | Bc BB | B4 | z2 c2 | e2 f2 | e4 | z4 | z4 | z4 | %57
w: And did He|rise?|_|did He|rise?|Hear, O ye|na- tions,|hear it, O ye|dead.|He|rose, He|rose,||||
 z2 z c | dc BA | B3 B | cB cB | B2 A2 | A2 (BA) | G3 G | A4 | z4 | c2 z2 | A2 z2 | z4 | z4 | %70
w: He|burst the bars of|death, He|burst the bars of|death and|tri- umph'd _|o'er the|grave.||Then,|then,|||
 (c>d e)f | e4 | z4 | z4 | c2 B2 | B4 | A2 AA | AA AA | AA AA | AA AB | (c>d e)e | (e>d c)A | %82
w: then _ _ I|rose,|||then I|rose,|then first hu-|ma- ni- ty tri-|um- phant past the|crys- tal ports of|light, _ _ and|seiz'd _ _ e-|
 (BA) G2 | A3 e | (e>d c)A | (BA) G2 | A4 | z4 | z4 | z4 | z4 | z4 | z4 | z4 | z4 | z4 | z4 | z4 | %98
w: ter- * nal|youth, and|seiz'd _ _ e-|ter- * nal|youth.||||||||||||
 z4 | z4 | c2 A>c | B2 A2 | e>e ee | c4 |] %104
w: ||Thine's all the|glo- ry,|man's the bound- less|bliss.|
V:2
 z4 | z4 | z4 | z4 | A3 F | G2 G2 | z4 | z4 | z4 | z4 | A2 F2 | E4 | E4 | z4 | z4 | z4 | z4 | z4 | %18
w: ||||Hal- le-|lu- jah.|||||Hal- le-|lu-|jah.||||||
 z4 | z4 | z4 | z4 | A3 F | G4 | AA AG | A2 GF | G2 F2 | E2 FF | E3 E | E4 | z4 | z4 | z4 | z4 | %34
w: ||||Now is|Christ|ris- en from the|dead, and be-|come the|first fruits of|them that|slept.|||||
 E2 F2 | E4 | E4 | z4 | z4 | z4 | z4 | z4 | z4 | A2 E (F/G/) | A4 | z2 AA | A4 | A2 E>A | G2 A2 | %49
w: Hal- le-|lu-|jah.|||||||And did He _|rise?|did He|rise?|Hear, O ye|na- tions,|
 BA GF | G4 | z4 | z4 | z4 | z4 | z4 | z4 | z2 z A | FF GA | G3 G | AB AF | G2 F2 | E2 F2 | E3 E | %64
w: hear it, O ye|dead.|||||||He|burst the bars of|death, He|burst the bars of|death and|tri- umph'd|o'er the|
 E4 | z4 | E2 z2 | E2 z2 | z4 | z4 | z4 | z4 | z4 | z4 | A2 F2 | G4 | E2 EE | EE EE | EE EE | %79
w: grave.||Then,|then,|||||||then I|rose,|then first hu-|ma- ni- ty tri-|um- phant past the|
 EE EE | (EF/G/ A)G | (A>G F)E | F2 E2 | E3 G | (A>G F)E | F2 E2 | E4 | z4 | E4 | EE EE | F4 | A4 | %92
w: crys- tal ports of|light, _ _ _ and|seiz'd _ _ e-|ter- nal|youth, and|seiz'd _ _ e-|ter- nal|youth.||Man,|all im- mor- tal|hail,|hail,|
 E2 EE | AG FE | F3 F | F4 | z4 | z4 | z4 | z4 | A2 E>A | G2 F2 | E>A GG | A4 |] %104
w: Hea- ven, all|la- vish of strange|gifts to|man,|||||Thine's all the|glo- ry,|man's the bound- less|bliss.|
V:3
 z4 | z4 | z4 | z4 | (e/d/c/d/ e)^d | e2 e2 | z2 A2 | (c>B c)d | (c>d e)f | e4 | (fe d)c | B4 | %12
w: ||||Hal- * * * * le-|lu- jah.|The|Lord _ _ is|ris'n _ _ in-|deed,|Hal- * * le-|lu-|
 A4 | z4 | z4 | z4 | z4 | z4 | z4 | z4 | z4 | z4 | (c>d e)^d | e4 | ef ed | c2 BA | e2 d2 | c2 dc | %28
w: jah.||||||||||Now _ _ is|Christ|ris- en from the|dead, and be-|come the|first fruits of|
 B3 B | A4 | z4 | z4 | c2 d2 | c2 B2 | c2 (dc) | B4 | A4 | z4 | z4 | e2 cd | e4 | z4 | e2 cd | %43
w: them that|slept.|||Hal- le-|lu- jah,|Hal- le- *|lu-|jah.|||And did He|rise?||And did He|
 e4- | e4 | z2 ee | f4 | e2 c>d | e2 e2 | ef e^d | e4 | z4 | z4 | z2 c2 | e2 f2 | e3 e | fe dc | %57
w: rise?|_|did He|rise?|Hear, O ye|na- tions,|hear it, O ye|dead.|||He|rose, He|rose, He|burst the bars of|
 d2 z2 | z4 | z2 z e | ed cd | e2 d2 | c2 (dc) | B3 B | A4 | z4 | A2 z2 | c2 z2 | (c>d e)f | e4 | %70
w: death,||He|burst the bars of|death and|tri- umph'd _|o'er the|grave.||Then,|then,|then _ _ I|rose,|
 z4 | z4 | (c>d e)f | e4 | f2 (e^d) | e4 | c2 cc | cc cc | cc cc | cd cB | c3 B | (c>d e)c | %82
w: ||then _ _ I|rose,|then I _|rose,|then first hu-|ma- ni- ty tri-|um- phant past the|crys- tal ports of|light, and|seiz'd _ _ e-|
 (dc) B2 | A3 B | (c>d e)c | (dc) B2 | A4 | z4 | z4 | z4 | z4 | z4 | z4 | z4 | z4 | z4 | e2 c>d | %97
w: ter- * nal|youth, and|seiz'd _ _ e-|ter- * nal|youth.||||||||||Thine's all the|
 e2 d2 | c>d BB | (A>B c2) | e2 c>d | e2 d2 | c>d BB | A4 |] %104
w: glo- ry,|man's the bound- less|bliss; _ _|Thine's all the|glo- ry,|man's the bound- less|bliss.|
V:4
 z2 A,2 | (E,>F, G,)E, | (A,>G, A,)B, | (C>B, A,2) | A,3 B, | E,2 E,2 | z4 | z4 | z4 | z4 | %10
w: The|Lord * * is|ris'n * * in-|deed, _ _|Hal- le-|lu- jah.|||||
 D,3 D, | E,4 | A,,4 | z4 | (A,,>B,, C,)D, | E,4 | A,G, A,B, | E,2 D,>D, | C,2 D,2 | E,2 F,D, | %20
w: Hal- le-|lu-|jah.||Now _ _ is|Christ|ris- en from the|dead, and be-|come the|first fruits of|
 E,3 E, | A,,4 | A,3 B, | E,4 | A,D CB, | A,2 E,F, | E,2 F,2 | A,2 D,D, | E,3 E, | A,,4 | A,2 B,2 | %31
w: them that|slept.|Now is|Christ|ris- en from the|dead, and be-|come the|first fruits of|them that|slept.|Hal- le-|
 A,2 E,2 | A,2 D,2 | A,,2 E,2 | A,2 D,2 | E,4 | A,,4 | z4 | E,2 C,E, | A,4- | A,4 | E,2 C,E, | %42
w: lu- jah,|Hal- le-|lu- jah,|Hal- le-|lu-|jah.||And did He|rise?|_|And did He|
 A,4- | A,4- | A,4 | z2 A,A, | D,4 | A,2 A,>A, | E,2 A,2 | G,A, B,B,, | E,4 | z2 A,2 | E,2 D,2 | %53
w: rise?|_||did He|rise?|Hear, O ye|na- tions,|hear it, O ye|dead.|He|rose, He|
 A,2 A,2 | C2 D2 | (C>B, A,)A, | DC B,A, | B,3 A, | B,A, G,F, | E,3 E, | A,G, A,B, | E,2 F,2 | %62
w: rose, He|rose, He|rose, _ _ He|burst the bars of|death, He|burst the bars of|death, He|burst the bars of|death and|
 A,2 D,2 | E,3 E, | A,,4 | z4 | A,,2 z2 | A,2 z2 | A,3 D, | A,4 | A,3 D, | A,4 | (A,>B, C)D | C4 | %74
w: tri- umph'd|o'er the|grave.||Then,|then,|then I|rose,|then I|rose,|then _ _ I|rose,|
 A,2 B,2 | E,4 | A,2 A,A, | A,A, A,A, | A,A, A,A, | A,A, A,G, | A,3 E, | A,3 A, | D,2 E,2 | %83
w: then I|rose,|then first hu-|ma- ni- ty tri-|um- phant past the|crys- tal ports of|light, and|seiz'd e-|ter- nal|
 A,,3 E, | A,3 A, | D,2 E,2 | A,,4 | z4 | A,4 | A,A, A,A, | D,4 | A,4 | A,2 A,G, | F,E, F,A, | %94
w: youth, and|seiz'd e-|ter- nal|youth.||Man,|all im- mor- tal|hail,|hail,|Hea- ven, all|la- vish of strange|
 D,3 D, | D,4 | A,2 A,>B, | C2 B,2 | A,>A, E,E, | A,4 | A,2 A,>A, | E,2 F,D, | E,>E, E,E, | A,,4 |] %104
w: gifts to|man,|Thine's all the|glo- ry,|man's the bound- less|bliss;|Thine's all the|glo- ry, *|man's the bound- less|bliss.|

